svg/u1f9d4_1f3fb_200d_2640.svg

<svg viewBox="0 0 128 128" xmlns="http://www.w3.org/2000/svg">
  <path id="hair" d="M64,3.81C19.59,4.68,13.93,45.37,13.94,70.2c0,18.65,2.54,35.64,4.33,45.29 c0.89,4.81,5.07,8.31,9.97,8.31H64h35.77c4.89,0,9.08-3.5,9.97-8.31c1.79-9.65,4.33-26.64,4.33-45.29 C114.07,45.37,108.41,4.68,64,3.81z" fill="#312D2D"/>
  <radialGradient id="SVGID_1_" cx="64.1686" cy="74.7269" gradientTransform="matrix(1 0 0 1.3467 0 -25.9064)" gradientUnits="userSpaceOnUse" r="52.5907">
    <stop offset="0.7945" stop-color="#454140" stop-opacity="0"/>
    <stop offset="1" stop-color="#454140"/>
  </radialGradient>
  <path d="M64,3.81C19.59,4.68,13.93,45.37,13.94,70.2c0,18.65,2.54,35.64,4.33,45.29 c0.89,4.81,5.07,8.31,9.97,8.31H64h35.77c4.89,0,9.08-3.5,9.97-8.31c1.79-9.65,4.33-26.64,4.33-45.29 C114.07,45.37,108.41,4.68,64,3.81z" fill="url(#SVGID_1_)"/>
  <g id="hair_x5F_group_6_">
    <radialGradient id="hairHighlights_1_" cx="59.1769" cy="66.7687" gradientTransform="matrix(9.400000e-14 -0.9583 -1.0117 -1.104911e-13 131.615 127.299)" gradientUnits="userSpaceOnUse" r="51.4038">
      <stop offset="0.7945" stop-color="#454140" stop-opacity="0"/>
      <stop offset="1" stop-color="#454140"/>
    </radialGradient>
    <path id="hairHighlights_16_" d="M19.19,71.7c0,0,3.4,52.09,44.9,52.09 s44.27-51.25,44.27-51.25L19.19,71.7z" fill="url(#hairHighlights_1_)"/>
  </g>
  <path id="head" d="M95.84,52.18C92.11,48.79,82.5,41.89,78.55,33.4c0,0-11.52,13.74-37.36,18.95 c-14.53,2.93-14.53,11.56-14.53,15.27s0.6,15.03,1.43,18.19c1.94,7.44,4.61,11.65,10.28,11.65c6.64,0,9.8-7.85,25.62-7.85 s18.7,9.24,25.62,7.85c4.34-0.88,6.63-3.79,9.07-8.27c2.16-3.97,2.66-13.65,2.5-22.78C100.89,61.16,100.5,56.4,95.84,52.18z" fill="#F9DDBD"/>
  <path id="nose_7_" d="M69.24,85.69c-0.15-0.06-0.29-0.09-0.44-0.11h-9.6c-0.15,0.02-0.29,0.05-0.44,0.11 c-0.87,0.35-1.35,1.25-0.94,2.21c0.42,0.96,2.33,3.65,6.18,3.65s5.76-2.69,6.18-3.65C70.58,86.95,70.1,86.05,69.24,85.69z" fill="#DBA689"/>
  <g id="eyes_7_">
    <ellipse cx="42.96" cy="73.33" fill="#312D2D" rx="6.67" ry="6.91"/>
    <ellipse cx="85.43" cy="73.33" fill="#312D2D" rx="6.67" ry="6.91"/>
  </g>
  <g id="eyebrows_11_">
    <g id="eyebrows_12_">
      <path d="M52.07,62.53c-1.19-1.57-3.94-3.86-9.27-3.86s-8.09,2.29-9.27,3.86c-0.53,0.7-0.39,1.5-0.03,1.98 c0.34,0.45,1.33,0.87,2.44,0.5c1.1-0.37,3.26-1.49,6.86-1.51c3.61,0.03,5.76,1.14,6.86,1.51c1.1,0.38,2.1-0.04,2.44-0.5 C52.46,64.03,52.6,63.22,52.07,62.53z" fill="#454140"/>
      <path d="M94.48,62.53c-1.19-1.57-3.94-3.86-9.27-3.86c-5.33,0-8.09,2.29-9.27,3.86 c-0.53,0.7-0.39,1.5-0.03,1.98c0.34,0.45,1.33,0.87,2.44,0.5c1.1-0.37,3.26-1.49,6.86-1.51c3.61,0.03,5.76,1.14,6.86,1.51 c1.1,0.38,2.1-0.04,2.44-0.5C94.87,64.03,95,63.22,94.48,62.53z" fill="#454140"/>
    </g>
  </g>
  <path id="mouth" d="M64.24,107.43c5.14,0,10.84-3.12,13.63-5.51c0.74-0.62,0.29-1.83-0.68-1.83H51.19 c-0.97,0-1.41,1.21-0.68,1.83C53.35,104.31,59.11,107.43,64.24,107.43z" fill="#F9DDBD"/>
</svg>

<svg viewBox="0 0 128 128" xmlns="http://www.w3.org/2000/svg">
  <defs>
    <radialGradient id="SVGID_1_" cx="64.1686" cy="55.48995" gradientTransform="matrix(1 0 0 1.3467 0 0)" gradientUnits="userSpaceOnUse" r="52.5907">
      <stop offset="0.7945" stop-color="#454140" stop-opacity="0"/>
      <stop offset="1" stop-color="#454140"/>
    </radialGradient>
    <radialGradient id="hairHighlights_1_" cx="-73.66146" cy="-63.324213" gradientTransform="matrix(0 -0.9583 -1.0117 0 0 0)" gradientUnits="userSpaceOnUse" r="51.4038">
      <stop offset="0.7945" stop-color="#454140" stop-opacity="0"/>
      <stop offset="1" stop-color="#454140"/>
    </radialGradient>
  </defs>
  <path id="hair" d="M64,3.81 C19.59,4.68 13.93,45.37 13.94,70.2 C13.94,88.85 16.48,105.84 18.27,115.49 C19.16,120.3 23.34,123.8 28.24,123.8 L64,123.8 L99.77,123.8 C104.66,123.8 108.85,120.3 109.74,115.49 C111.53,105.84 114.07,88.85 114.07,70.2 C114.07,45.37 108.41,4.68 64,3.81 Z" fill="#312D2D"/>
  <path d="M64,3.81 C19.59,4.68 13.93,45.37 13.94,70.2 C13.94,88.85 16.48,105.84 18.27,115.49 C19.16,120.3 23.34,123.8 28.24,123.8 L64,123.8 L99.77,123.8 C104.66,123.8 108.85,120.3 109.74,115.49 C111.53,105.84 114.07,88.85 114.07,70.2 C114.07,45.37 108.41,4.68 64,3.81 Z" fill="url(#SVGID_1_)"/>
  <path id="hairHighlights_16_" d="M19.19,71.7 C19.19,71.7 22.59,123.79 64.09,123.79 C105.59,123.79 108.36,72.54 108.36,72.54 L19.19,71.7 Z" fill="url(#hairHighlights_1_)"/>
  <path id="head" d="M95.84,52.18 C92.11,48.79 82.5,41.89 78.55,33.4 C78.55,33.4 67.03,47.14 41.19,52.35 C26.66,55.28 26.66,63.91 26.66,67.62 C26.66,71.33 27.26,82.65 28.09,85.81 C30.03,93.25 32.7,97.46 38.37,97.46 C45.01,97.46 48.17,89.61 63.99,89.61 C79.81,89.61 82.69,98.85 89.61,97.46 C93.95,96.58 96.24,93.67 98.68,89.19 C100.84,85.22 101.34,75.54 101.18,66.41 C100.89,61.16 100.5,56.4 95.84,52.18 Z" fill="#F9DDBD"/>
  <path id="nose_7_" d="M69.24,85.69 C69.09,85.63 68.95,85.6 68.8,85.58 L59.2,85.58 C59.05,85.6 58.91,85.63 58.76,85.69 C57.89,86.04 57.41,86.94 57.82,87.9 C58.24,88.86 60.15,91.55 64,91.55 C67.85,91.55 69.76,88.86 70.18,87.9 C70.58,86.95 70.1,86.05 69.24,85.69 Z" fill="#DBA689"/>
  <path d="M49.63,73.33 A6.67 6.91 0 1 1 36.29,73.33 A6.67 6.91 0 1 1 49.63,73.33 Z" fill="#312D2D"/>
  <path d="M92.1,73.33 A6.67 6.91 0 1 1 78.76,73.33 A6.67 6.91 0 1 1 92.1,73.33 Z" fill="#312D2D"/>
  <path d="M52.07,62.53 C50.88,60.96 48.13,58.67 42.8,58.67 C37.47,58.67 34.71,60.96 33.53,62.53 C33,63.23 33.14,64.03 33.5,64.51 C33.84,64.96 34.83,65.38 35.94,65.01 C37.04,64.64 39.2,63.52 42.8,63.5 C46.41,63.53 48.56,64.64 49.66,65.01 C50.76,65.39 51.76,64.97 52.1,64.51 C52.46,64.03 52.6,63.22 52.07,62.53 Z" fill="#454140"/>
  <path d="M94.48,62.53 C93.29,60.96 90.54,58.67 85.21,58.67 C79.88,58.67 77.12,60.96 75.94,62.53 C75.41,63.23 75.55,64.03 75.91,64.51 C76.25,64.96 77.24,65.38 78.35,65.01 C79.45,64.64 81.61,63.52 85.21,63.5 C88.82,63.53 90.97,64.64 92.07,65.01 C93.17,65.39 94.17,64.97 94.51,64.51 C94.87,64.03 95,63.22 94.48,62.53 Z" fill="#454140"/>
  <path id="mouth" d="M64.24,107.43 C69.38,107.43 75.08,104.31 77.87,101.92 C78.61,101.3 78.16,100.09 77.19,100.09 L51.19,100.09 C50.22,100.09 49.78,101.3 50.51,101.92 C53.35,104.31 59.11,107.43 64.24,107.43 Z" fill="#F9DDBD"/>
</svg>
